X:35
T:Bore la Bass.
T:ed 1695 has the small notes in the 10th bar.
T:John Malchair's Third Collection of Tunes
%%VWML:Malchair-3619-p35
F:https://www.vwml.org/record/Malchair/3619/p35
F:www.vwml.org/topics/historic-dance-and-tune-books/Malchair
Z:Eric Conrad Jan 2020
M:C|
L:1/8
K:G
ga | b2ag f3g | a2 d4 (ed) | c3B A2(Bc) | d2 d4 ||
AB | c3d edef | g2 g4 cB | c3d edcB | A2 A4 cB |
c3d edef | gfga g2Bc | d2cB A2Bc | B2 G4 |]
W:
T:Excuse Me.
T:an other on p 43.
T:John Malchair's Third Collection of Tunes
F:https://www.vwml.org/record/Malchair/3619/p35
F:www.vwml.org/topics/historic-dance-and-tune-books/Malchair
M:6/4
L:1/4
R:jig
K:Gm
G2G G2g | f2e d2e | f>gf cdB | A3 F3 |
f>ed e>dc | d>ed c>BA | B>AG A^F2 | (G3 G3) ||
B2c dBG | B2c dBG | B2c d2g | ^f3 d3 ||
ABc c>dc | f2c A2A | Bcd d>ed | g2f ^e>dc |
f2f f>ed | c2B A2^f | g2d e>dc | A3 G3 ||
W:
T:Pants Steepl. 1665.
T:See another col 2 p 85.
T:John Malchair's Third Collection of Tunes
F:https://www.vwml.org/record/Malchair/3619/p35
F:www.vwml.org/topics/historic-dance-and-tune-books/Malchair
M:2/4
L:1/8
K:Gdor
B3A G2A2 | B6 cB | A2F2 F2F2 | F6 F2 | G2G2 G2A2 | B2cB A2G2 |
d2d2 d2d2 | d6 c2 | B2B2 B2c2 | d4 c2B2 | c2c2 c2c2 |
c6 Bc | d2d2 c2B2 | A2G2 A3c | B2G2 G2G2 | G8 |]
I:abc-charset utf-8

